packages/core/src/svgs/tokens/branded/CYBER.svg

<svg width="24" height="24" viewBox="0 0 24 24" fill="none" xmlns="http://www.w3.org/2000/svg">
<path d="M9.23178 8.87475H10.6945C10.8195 8.87475 10.9446 8.81223 11.0071 8.70597L12.0135 7.04938C12.1511 6.82435 12.5074 6.83059 12.6387 7.05564L13.6076 8.69971C13.6701 8.80599 13.7951 8.87475 13.9202 8.87475H15.3955C15.6643 8.87475 15.8393 8.60594 15.7081 8.3809L12.7074 3.44867C12.6664 3.38678 12.6107 3.336 12.5452 3.30088C12.4797 3.26575 12.4066 3.24738 12.3324 3.24738C12.2581 3.24738 12.1849 3.26575 12.1196 3.30088C12.0541 3.336 11.9984 3.38678 11.9572 3.44867L8.92542 8.38715C8.78789 8.5997 8.95668 8.87475 9.23805 8.87475H9.23178ZM2.34286 20.7521H9.01918C9.32557 20.7521 9.47551 20.3833 9.26926 20.1645L7.99399 18.8767H5.79354C5.46223 18.8767 5.26219 18.4329 5.45598 18.1516L5.99983 17.3514C6.06359 17.2562 6.09221 17.1417 6.0808 17.0276C6.06939 16.9135 6.01868 16.8071 5.93733 16.7263L5.06215 15.8699C5.02462 15.8346 4.97966 15.8082 4.93056 15.7926C4.88145 15.777 4.82948 15.7726 4.77847 15.7799C4.72744 15.7871 4.67871 15.8056 4.63584 15.8342C4.59297 15.8628 4.55708 15.9005 4.53079 15.9449L2.04905 20.227C1.91153 20.4583 2.0803 20.7521 2.34286 20.7521ZM21.6593 20.7521H14.9828C14.6765 20.7521 14.5266 20.3833 14.7328 20.1645L16.0081 18.8767H18.2086C18.5398 18.8767 18.7398 18.4329 18.5461 18.1516L18.0022 17.3514C17.9385 17.2562 17.9099 17.1417 17.9212 17.0276C17.9326 16.9135 17.9834 16.8071 18.0648 16.7263L18.9399 15.8699C19.0962 15.7137 19.3587 15.7449 19.4713 15.9449L21.953 20.227C21.9834 20.2796 21.9996 20.3391 22 20.3998C22.0004 20.4605 21.9851 20.5201 21.9554 20.5731C21.9257 20.626 21.8829 20.6704 21.8309 20.7017C21.779 20.7331 21.7198 20.7505 21.6593 20.7521ZM11.376 9.86244V12.7381C11.3793 12.8697 11.3306 12.9973 11.2406 13.0933C11.1505 13.1891 11.0262 13.2457 10.8946 13.2507H9.93192C9.66309 13.2507 9.5006 13.0256 9.5006 12.7442V11.9004C9.5006 11.7003 9.29421 11.3753 9.10677 11.3753H5.66852C5.36221 11.3753 5.21217 11.9379 5.43097 12.163L8.88166 15.7261C9.09423 15.9449 9.5006 15.9325 9.5006 15.6199C9.5006 15.3448 9.65682 15.1197 9.91937 15.1197H10.8946C11.0262 15.1247 11.1505 15.1811 11.2406 15.2771C11.3306 15.3731 11.3793 15.5007 11.376 15.6323V20.3145C11.376 20.7022 10.9384 20.8959 10.6695 20.6271L2.74919 12.3005C2.66963 12.2158 2.62533 12.104 2.62533 11.9879C2.62533 11.8717 2.66963 11.7599 2.74919 11.6753L4.8246 9.49987H11.0322C11.2196 9.49987 11.376 9.66241 11.376 9.86244ZM12.6261 20.3145V10.0812C12.6261 9.76242 12.8762 9.49987 13.1825 9.49987H18.9525C19.1024 9.49987 19.2463 9.56239 19.3463 9.67491L21.2592 11.7378C21.3529 11.8378 21.3842 11.9691 21.3779 12.0941C21.3592 12.2442 21.2592 12.3692 21.1654 12.4879L21.0778 12.6005L20.7841 13.013L20.7715 13.0256C20.6966 13.1256 20.6153 13.2444 20.484 13.2507H18.5524C18.4148 13.2507 18.2523 13.138 18.2523 12.9881V12.888C18.2523 12.7005 18.3773 12.5254 18.5149 12.4067L18.5336 12.388C18.6085 12.3254 18.7023 11.9628 18.7023 11.8566C18.7023 11.6628 18.4961 11.3753 18.3085 11.3753H14.9079C14.7203 11.3753 14.5015 11.7003 14.5015 11.9004V15.4135C14.5015 15.8073 15.0142 16.0012 15.2768 15.7198L15.9206 15.1572C15.9455 15.1323 15.983 15.126 16.0207 15.126H17.6397C18.0085 15.126 18.1898 15.5824 17.9335 15.8636L13.3388 20.6208C13.0763 20.9022 12.6261 20.7022 12.6261 20.3145Z" fill="#E4323E"/>
</svg>

<svg xmlns="http://www.w3.org/2000/svg" width="24" height="24" fill="none" viewBox="0 0 24 24">
    <path fill="#E4323E" d="M9.232 8.875h1.463c.124 0 .25-.063.312-.169l1.007-1.657c.137-.225.493-.218.625.007l.969 1.644a.37.37 0 0 0 .312.175h1.476c.268 0 .443-.27.312-.494l-3-4.932a.45.45 0 0 0-.75 0L8.924 8.387c-.137.213.032.488.313.488zm-6.89 11.877H9.02c.307 0 .457-.369.25-.587l-1.275-1.288h-2.2c-.332 0-.532-.444-.338-.725l.544-.8a.494.494 0 0 0-.063-.626l-.875-.856a.344.344 0 0 0-.531.075L2.05 20.227a.348.348 0 0 0 .294.525m19.317 0h-6.676c-.306 0-.456-.369-.25-.587l1.275-1.288h2.2c.332 0 .532-.444.338-.725l-.544-.8a.495.495 0 0 1 .063-.626l.875-.856a.335.335 0 0 1 .531.075l2.482 4.282a.35.35 0 0 1-.294.525M11.376 9.862v2.876a.5.5 0 0 1-.481.513h-.963c-.269 0-.431-.225-.431-.507V11.9c0-.2-.207-.525-.394-.525H5.669c-.307 0-.457.563-.238.788l3.45 3.563c.213.219.62.206.62-.106 0-.275.156-.5.418-.5h.976a.5.5 0 0 1 .481.512v4.682c0 .388-.438.582-.707.313l-7.92-8.326a.457.457 0 0 1 0-.626L4.825 9.5h6.207c.188 0 .344.162.344.362m1.25 10.452V10.081a.57.57 0 0 1 .556-.581h5.77c.15 0 .294.062.394.175l1.913 2.063c.094.1.125.231.119.356-.019.15-.119.275-.213.394l-.087.113-.294.412-.012.013c-.075.1-.157.218-.288.225h-1.932c-.137 0-.3-.113-.3-.263v-.1c0-.187.125-.363.263-.481l.019-.019c.075-.063.168-.425.168-.531 0-.194-.206-.482-.394-.482h-3.4c-.188 0-.406.325-.406.525v3.514c0 .393.512.587.775.306l.644-.563c.024-.025.062-.031.1-.031h1.619c.369 0 .55.456.293.738L13.34 20.62c-.263.281-.713.081-.713-.306"/>
</svg>
